app/public/logos/polimec.svg

<svg xmlns="http://www.w3.org/2000/svg" width="350pt" height="350pt" style="isolation:isolate" viewBox="0 0 350 350"><defs><clipPath id="a"><path d="M0 0h350v350H0z"/></clipPath></defs><g clip-path="url(#a)"><path d="M0 0h350v350H0z" style="fill:#cbffa1"/><clipPath id="b"><path fill="#FFF" d="M45 82.24h260v185.52H45z"/></clipPath><g fill="#25311C" clip-path="url(#b)"><path d="M175.031 196.098v-10.291c16.544 0 32.583-1.344 47.668-3.992 14.484-2.543 27.462-6.171 38.571-10.782 10.693-4.438 19.373-9.757 25.104-15.38 5.482-5.381 8.262-10.926 8.262-16.484 0-5.557-2.78-11.103-8.262-16.483-5.73-5.623-14.409-10.94-25.104-15.381-11.109-4.61-24.087-8.239-38.571-10.781-15.086-2.649-31.124-3.992-47.668-3.992-7.583 0-15.173.288-22.56.859a270 270 0 0 0-18.023 1.995l-1.483-10.184a280 280 0 0 1 18.714-2.073c7.651-.59 15.508-.89 23.353-.89 33.984 0 66.012 5.526 90.186 15.56 25.609 10.631 39.713 25.322 39.713 41.369s-14.104 30.739-39.713 41.369c-24.174 10.034-56.202 15.56-90.186 15.56z"/><path d="M174.896 267.76c-33.983 0-66.011-5.526-90.185-15.561C59.104 241.569 45 226.878 45 210.83s14.104-30.739 39.713-41.37c24.173-10.033 56.201-15.56 90.185-15.56v10.292c-16.543 0-32.581 1.343-47.669 3.992-14.484 2.544-27.461 6.171-38.57 10.783-10.693 4.438-19.374 9.756-25.104 15.38-5.482 5.38-8.262 10.925-8.262 16.483s2.78 11.104 8.262 16.484c5.729 5.623 14.409 10.94 25.104 15.38 11.109 4.611 24.086 8.238 38.57 10.782 15.088 2.648 31.126 3.992 47.669 3.992 7.582 0 15.172-.289 22.559-.859a271 271 0 0 0 18.024-1.995l1.483 10.184a279 279 0 0 1-18.715 2.072c-7.649.591-15.506.891-23.353.891z"/><path d="M175.069 231.899c-33.991 0-66.029-5.521-90.206-15.548-25.618-10.621-39.724-25.303-39.724-41.341 0-16.037 14.108-30.721 39.724-41.342 24.179-10.026 56.215-15.548 90.206-15.548s66.029 5.522 90.207 15.548C290.892 144.289 305 158.973 305 175.01c0 16.038-14.108 30.72-39.724 41.341-24.18 10.027-56.215 15.548-90.207 15.548m0-103.487c-16.549 0-32.591 1.342-47.683 3.99-14.488 2.541-27.47 6.166-38.581 10.775-10.696 4.435-19.38 9.748-25.112 15.368-5.483 5.374-8.263 10.914-8.263 16.466s2.78 11.093 8.263 16.467c5.732 5.618 14.414 10.933 25.112 15.368 11.111 4.609 24.093 8.234 38.581 10.775 15.092 2.648 31.135 3.99 47.683 3.99s32.591-1.342 47.683-3.99c14.488-2.541 27.469-6.166 38.582-10.775 10.696-4.435 19.38-9.75 25.111-15.368 5.483-5.374 8.263-10.915 8.263-16.467s-2.78-11.092-8.263-16.466c-5.731-5.62-14.414-10.933-25.111-15.368-11.113-4.609-24.094-8.234-38.582-10.775-15.092-2.648-31.135-3.99-47.683-3.99"/></g></g></svg>

<?xml version="1.0" encoding="UTF-8" standalone="no"?><!-- Generator: Gravit.io --><svg xmlns="http://www.w3.org/2000/svg" xmlns:xlink="http://www.w3.org/1999/xlink" style="isolation:isolate" viewBox="0 0 350 350" width="350pt" height="350pt"><defs><clipPath id="_clipPath_GlJySPVbQvubZMfhYF3ixMKMMDnxePhA"><rect width="350" height="350"/></clipPath></defs><g clip-path="url(#_clipPath_GlJySPVbQvubZMfhYF3ixMKMMDnxePhA)"><rect width="350" height="350" style="fill:rgb(203,255,161)"/><g><clipPath id="_clipPath_KVcbWGWcrNIL4Kp4n15LZxylj2lEMyC2"><rect x="45" y="82.24" width="260" height="185.52" transform="matrix(1,0,0,1,0,0)" fill="rgb(255,255,255)"/></clipPath><g clip-path="url(#_clipPath_KVcbWGWcrNIL4Kp4n15LZxylj2lEMyC2)"><g><path d=" M 175.031 196.098 L 175.031 185.807 C 191.575 185.807 207.614 184.463 222.699 181.815 C 237.183 179.272 250.161 175.644 261.27 171.033 C 271.963 166.595 280.643 161.276 286.374 155.653 C 291.856 150.272 294.636 144.727 294.636 139.169 C 294.636 133.612 291.856 128.066 286.374 122.686 C 280.644 117.063 271.965 111.746 261.27 107.305 C 250.161 102.695 237.183 99.066 222.699 96.524 C 207.613 93.875 191.575 92.532 175.031 92.532 C 167.448 92.532 159.858 92.82 152.471 93.391 C 146.363 93.862 140.3 94.534 134.448 95.386 L 132.965 85.202 C 139.045 84.316 145.342 83.618 151.679 83.129 C 159.33 82.539 167.187 82.239 175.032 82.239 C 209.016 82.239 241.044 87.765 265.218 97.799 C 290.827 108.43 304.931 123.121 304.931 139.168 C 304.931 155.216 290.827 169.907 265.218 180.537 C 241.044 190.571 209.016 196.097 175.032 196.097 L 175.031 196.098 Z " fill="rgb(37,49,28)"/><path d=" M 174.896 267.76 C 140.913 267.76 108.885 262.234 84.711 252.199 C 59.104 241.569 45 226.878 45 210.83 C 45 194.782 59.104 180.091 84.713 169.46 C 108.886 159.427 140.914 153.9 174.898 153.9 L 174.898 164.192 C 158.355 164.192 142.317 165.535 127.229 168.184 C 112.745 170.728 99.768 174.355 88.659 178.967 C 77.966 183.405 69.285 188.723 63.555 194.347 C 58.073 199.727 55.293 205.272 55.293 210.83 C 55.293 216.387 58.073 221.934 63.555 227.314 C 69.284 232.937 77.964 238.254 88.659 242.694 C 99.768 247.305 112.745 250.932 127.229 253.476 C 142.317 256.124 158.355 257.468 174.898 257.468 C 182.48 257.468 190.07 257.179 197.457 256.609 C 203.565 256.137 209.629 255.465 215.481 254.614 L 216.964 264.798 C 210.884 265.684 204.588 266.382 198.249 266.87 C 190.6 267.461 182.743 267.761 174.896 267.761 L 174.896 267.76 Z " fill="rgb(37,49,28)"/><path d=" M 175.069 231.899 C 141.078 231.899 109.04 226.378 84.863 216.351 C 59.245 205.73 45.139 191.048 45.139 175.01 C 45.139 158.973 59.247 144.289 84.863 133.668 C 109.042 123.642 141.078 118.12 175.069 118.12 C 209.061 118.12 241.098 123.642 265.276 133.668 C 290.892 144.289 305 158.973 305 175.01 C 305 191.048 290.892 205.73 265.276 216.351 C 241.096 226.378 209.061 231.899 175.069 231.899 Z  M 175.069 128.412 C 158.52 128.412 142.478 129.754 127.386 132.402 C 112.898 134.943 99.916 138.568 88.805 143.177 C 78.109 147.612 69.425 152.925 63.693 158.545 C 58.21 163.919 55.43 169.459 55.43 175.011 C 55.43 180.563 58.21 186.104 63.693 191.478 C 69.425 197.096 78.107 202.411 88.805 206.846 C 99.916 211.455 112.898 215.08 127.386 217.621 C 142.478 220.269 158.521 221.611 175.069 221.611 C 191.617 221.611 207.66 220.269 222.752 217.621 C 237.24 215.08 250.221 211.455 261.334 206.846 C 272.03 202.411 280.714 197.096 286.445 191.478 C 291.928 186.104 294.708 180.563 294.708 175.011 C 294.708 169.459 291.928 163.919 286.445 158.545 C 280.714 152.925 272.031 147.612 261.334 143.177 C 250.221 138.568 237.24 134.943 222.752 132.402 C 207.66 129.754 191.617 128.412 175.069 128.412 Z " fill="rgb(37,49,28)"/></g></g></g></g></svg>
